packages/components/svg/solid/chevron-double-up.svg

<svg xmlns="http://www.w3.org/2000/svg" width="24" height="24" fill="currentColor" viewBox="0 0 24 24">
<path fill-rule="evenodd" clip-rule="evenodd" d="M16.6687 18.2095C16.2814 18.5968 15.6534 18.5968 15.2661 18.2095L12 14.9434L8.73401 18.2095C8.34667 18.5968 7.71867 18.5968 7.33134 18.2095C6.944 17.8221 6.944 17.1941 7.33134 16.8068L10.7727 13.3654C11.4505 12.6876 12.5495 12.6876 13.2274 13.3654L16.6687 16.8068C17.0561 17.1941 17.0561 17.8221 16.6687 18.2095ZM16.6687 11.2666C16.2814 11.6539 15.6534 11.6539 15.2661 11.2666L12 8.00057L8.73401 11.2666C8.34667 11.6539 7.71867 11.6539 7.33134 11.2666C6.944 10.8793 6.944 10.2513 7.33134 9.86392L10.7727 6.42256C11.4505 5.74472 12.5495 5.74472 13.2274 6.42257L16.6687 9.86392C17.0561 10.2513 17.0561 10.8793 16.6687 11.2666Z" />
</svg>

<svg xmlns="http://www.w3.org/2000/svg" width="24" height="24" fill="currentColor" viewBox="0 0 24 24">
  <path  fill-rule="evenodd" d="M16.669 18.21a.992.992 0 0 1-1.403 0L12 14.942 8.734 18.21a.992.992 0 0 1-1.403-1.402l3.442-3.442a1.736 1.736 0 0 1 2.454 0l3.442 3.442a.992.992 0 0 1 0 1.402Zm0-6.943a.992.992 0 0 1-1.403 0L12 8l-3.266 3.266a.992.992 0 0 1-1.403-1.403l3.442-3.441a1.736 1.736 0 0 1 2.454 0l3.442 3.44a.992.992 0 0 1 0 1.404Z" clip-rule="evenodd"/>
</svg>
